X:1
T:Loreto, 87.87.77.77
T:Isaac Hickman Meredith, 1910
T:Loreto, 87.87.77.77
T:Public Domain
C:Isaac Hickman Meredith, 1910
Z:Public Domain
%%score ( 1 2 ) ( 3 4 )
L:1/8
M:4/4
K:Ab
V:1 treble 
V:2 treble 
V:3 bass 
V:4 bass 
V:1
 !>!E>!>!E | !>!A2 !>!E2 !>!B2 !>!E2 | !>!c4 !>!A2 E>E | [DF]2 [FB]2 [EA]2 [EG]2 | %4
 [EA]6 !>!E>!>!E | !>!A2 !>!E2 !>!B2 !>!E2 | !>!c4 !>!A2 [Ec]>[Ec] | [EB]2 [FA]2 [EG]2 [=DF]2 | %8
 E6 E>E | E2 [EF]2 [EG]2 [EA]2 | [GB]6 [EG]>[EG] | [EG]2 [EA]2 [GB]2 [^Fc]2 | %12
 [Gd]6"^a tempo" [Ec]>[Ed] | [Ee]2 [Ec]2 [DB]2 [CA]2 | ([DF]4 [Fd]2) [Fd]>[Fd] | %15
 .[Fc]2 .[FB]2 .[EA]2 .[EG]2 | [EA]6 |] %17
V:2
 E>E | A2 E2 B2 E2 | c4 A2 E>E | x8 | x6 E>E | A2 E2 B2 E2 | c4 A2 x2 | x8 | E6 E>E | E2 x6 | x8 | %11
 x8 | x8 | x8 | x8 | x8 | x6 |] %17
V:3
 E,>E, | A,2 E,2 B,2 E,2 | C4 A,2 [C,A,]>[C,A,] | [D,A,]2 [B,,D]2 [E,C]2 [E,B,]2 | %4
 [A,,A,C]6 E,>E, | A,2 E,2 B,2 E,2 | C4 A,2 A,>A, | [G,B,]2 [A,C]2 B,2 [B,,A,]2 | %8
 [E,G,]6 [E,G,]>[E,G,] | [E,G,]2 [E,A,]2 [E,B,]2 [E,C]2 | [E,D]6 [E,E]>[E,E] | %11
 [E,D]2 [E,C]2 [E,B,]2 [E,=A,]2 | [E,B,]6 A,>[A,B,] | [A,C]2 A,2 [E,G,]2 [F,A,]2 | %14
 ([D,A,]4 [B,,B,]2) [B,,B,]>[B,,B,] | [C,E]2 [D,D]2 [E,C]2 (B,D) | [A,,C]6 |] %17
V:4
 E,>E, | A,2 E,2 B,2 E,2 | C4 A,2 x2 | x8 | x6 E,>E, | A,2 E,2 B,2 E,2 | C4 A,2 A,>A, | x4 B,2 x2 | %8
 x8 | x8 | x8 | x8 | x6 A,3/2 x/ | x2 A,2 x4 | x8 | x6 E,2 | x6 |] %17

